X:669
T:High Road To Linton #2 
C:Joe Buchanan's Scottish Tome - Page 205.4
I:205 4
R:Reel
Z:Carl Allison
L:1/8
M:4/4
K:A
d | ceaf a2 ae | f2 fe d2 ae | ceef a2 ae | faec {c}B2 A :| 
d | ceeg fddf | ecce fBBd | ceeg fddf | ecac {c}B2 Ad |
ceeg fddf | ecce fBBd | ceeg fddf | ecac {c}B2 A |]

